Papirus/64x64/apps/livewallpaper-config.svg

<svg xmlns="http://www.w3.org/2000/svg" width="64" height="64" version="1">
 <path style="opacity:0.2" d="m 16.0002,51.376 0,2 c 0,1.454 1.1906,2.624 2.668,2.624 l 26.664,0 c 1.478,0 2.668,-1.17 2.668,-2.624 l 0,-2 c 0,1.454 -1.19,2.624 -2.668,2.624 l -26.664,0 c -1.4774,0 -2.668,-1.17 -2.668,-2.624 z"/>
 <rect style="fill:#8e8e8e" width="42" height="32" x="-55" y="-48" rx="2.626" ry="2.666" transform="matrix(0,-1,-1,0,0,0)"/>
 <path style="opacity:0.2" d="m 6.0002,45.5 0,2 c 0,1.384 1.1612,2.5 2.6016,2.5 l 46.796,0 c 1.44,0 2.602,-1.116 2.602,-2.5 l 0,-2 c 0,1.384 -1.162,2.5 -2.602,2.5 L 8.6018,48 C 7.161,48 5.9998,46.884 5.9998,45.5 Z"/>
 <rect style="fill:#8e8e8e" width="40" height="52" x="-49" y="-58" rx="2.5" ry="2.6" transform="matrix(0,-1,-1,0,0,0)"/>
 <path style="opacity:0.2;fill:#ffffff" d="M 8.6015625 9 C 7.1611625 9 6 10.115 6 11.5 L 6 12.5 C 6 11.115 7.1611625 10 8.6015625 10 L 55.398438 10 C 56.838438 10 58 11.115 58 12.5 L 58 11.5 C 58 10.115 56.838438 9 55.398438 9 L 8.6015625 9 z"/>
 <rect style="fill:#1d83af" width="32" height="44" x="-45" y="-54" rx="0" ry="0" transform="matrix(0,-1,-1,0,0,0)"/>
 <path style="opacity:0.2" d="m 43.0002,16 a 7,7 0 0 0 -7,7 7,7 0 0 0 7,7 7,7 0 0 0 7,-7 7,7 0 0 0 -7,-7 z m -14,4 a 3,3 0 0 0 -3,3 3,3 0 0 0 3,3 3,3 0 0 0 3,-3 3,3 0 0 0 -3,-3 z m -10,6 a 5,5 0 0 0 -5,5 5,5 0 0 0 5,5 5,5 0 0 0 5,-5 5,5 0 0 0 -5,-5 z m 27.941406,8.941406 a 2,2 0 0 0 -2,2 2,2 0 0 0 2,2 2,2 0 0 0 2,-2 2,2 0 0 0 -2,-2 z M 36.0002,36 a 4,4 0 0 0 -4,4 4,4 0 0 0 4,4 4,4 0 0 0 4,-4 4,4 0 0 0 -4,-4 z"/>
 <circle style="fill:#f0f9fd" cx="43" cy="22" r="7"/>
 <circle style="fill:#c4e7f5" cx="19" cy="30" r="5"/>
 <circle style="fill:#a6daf0" cx="36" cy="39" r="4"/>
 <circle style="fill:#c4e7f5" cx="29" cy="22" r="3"/>
 <circle style="fill:#d3edf8" cx="46.941" cy="35.941" r="2"/>
 <path style="opacity:0.2" d="M 63.958,45.848 A 16,16 0 0 1 48,61 16,16 0 0 1 32.042,46.152 16,16 0 0 0 32,47 16,16 0 0 0 48,63 16,16 0 0 0 64,47 16,16 0 0 0 63.95704,45.84766 Z"/>
 <circle style="fill:#c149c0;fill-rule:evenodd" cx="48" cy="46" r="16"/>
 <path style="fill:#ffffff" d="m 46,38 -0.1764,2.1072 a 6.2858,6.2858 0 0 0 -1.83704,1.06252 l -1.91518,-0.9018 -2,3.4642 1.73882,1.2076 a 6.2858,6.2858 0 0 0 -0.096,1.06026 6.2858,6.2858 0 0 0 0.0914,1.06474 l -1.73438,1.20312 2,3.4642 1.91072,-0.89956 a 6.2858,6.2858 0 0 0 1.8415,1.0558 l 0.1764,2.1116 4,0 0.1764,-2.1072 a 6.2858,6.2858 0 0 0 1.83708,-1.06252 l 1.91516,0.9018 2,-3.4642 -1.73884,-1.2076 a 6.2858,6.2858 0 0 0 0.096,-1.06026 6.2858,6.2858 0 0 0 -0.0914,-1.06474 l 1.73438,-1.20312 -2,-3.4642 -1.91072,0.89956 a 6.2858,6.2858 0 0 0 -1.842,-1.056 l -0.176,-2.112 -4,0 z m 2,5.7144 a 2.2858,2.2858 0 0 1 2.286,2.286 A 2.2858,2.2858 0 0 1 48,48.2864 2.2858,2.2858 0 0 1 45.714,46.0004 2.2858,2.2858 0 0 1 48,43.7144 Z"/>
</svg>

<svg xmlns="http://www.w3.org/2000/svg" width="64" height="64" version="1">
 <rect style="opacity:0.2" width="42" height="32" x="-56" y="-48" rx="2.5" ry="2.5" transform="matrix(0,-1,-1,0,0,0)"/>
 <rect style="fill:#8e8e8e" width="42" height="32" x="-55" y="-48" rx="2.5" ry="2.5" transform="matrix(0,-1,-1,0,0,0)"/>
 <rect style="opacity:0.2" width="40" height="52" x="-50" y="-58" rx="2.5" ry="2.5" transform="matrix(0,-1,-1,0,0,0)"/>
 <rect style="fill:#4f4f4f" width="40" height="52" x="-49" y="-58" rx="2.5" ry="2.5" transform="matrix(0,-1,-1,0,0,0)"/>
 <path style="opacity:0.1;fill:#ffffff" d="M 8.5,9 C 7.115,9 6,10.115 6,11.5 V 12.5 C 6,11.115 7.115,10 8.5,10 H 55.5 C 56.885,10 58,11.115 58,12.5 V 11.5 C 58,10.115 56.885,9 55.5,9 Z"/>
 <rect style="opacity:0.1;fill:#ffffff" width="44" height="1" x="10" y="45"/>
 <rect style="fill:#1d83af" width="32" height="44" x="-45" y="-54" rx="0" ry="0" transform="matrix(0,-1,-1,0,0,0)"/>
 <path style="opacity:0.2" d="m 43.0002,16 a 7,7 0 0 0 -7,7 7,7 0 0 0 7,7 7,7 0 0 0 7,-7 7,7 0 0 0 -7,-7 z m -14,4 a 3,3 0 0 0 -3,3 3,3 0 0 0 3,3 3,3 0 0 0 3,-3 3,3 0 0 0 -3,-3 z m -10,6 a 5,5 0 0 0 -5,5 5,5 0 0 0 5,5 5,5 0 0 0 5,-5 5,5 0 0 0 -5,-5 z m 27.941406,8.941406 a 2,2 0 0 0 -2,2 2,2 0 0 0 2,2 2,2 0 0 0 2,-2 2,2 0 0 0 -2,-2 z M 36.0002,36 a 4,4 0 0 0 -4,4 4,4 0 0 0 4,4 4,4 0 0 0 4,-4 4,4 0 0 0 -4,-4 z"/>
 <circle style="fill:#f0f9fd" cx="43" cy="22" r="7"/>
 <circle style="fill:#c4e7f5" cx="19" cy="30" r="5"/>
 <circle style="fill:#a6daf0" cx="36" cy="39" r="4"/>
 <circle style="fill:#c4e7f5" cx="29" cy="22" r="3"/>
 <circle style="fill:#d3edf8" cx="46.941" cy="35.941" r="2"/>
 <circle style="opacity:0.2" cx="48" cy="47" r="16"/>
 <circle style="fill:#c149c0" cx="48" cy="46" r="16"/>
 <path style="fill:#ffffff" d="M 46,38 45.824,40.107 A 6.2858,6.2858 0 0 0 43.987,41.17 L 42.071,40.268 40.071,43.732 41.81,44.94 A 6.2858,6.2858 0 0 0 41.714,46 6.2858,6.2858 0 0 0 41.806,47.065 L 40.071,48.268 42.071,51.732 43.982,50.832 A 6.2858,6.2858 0 0 0 45.823,51.888 L 46,54 H 50 L 50.176,51.893 A 6.2858,6.2858 0 0 0 52.013,50.83 L 53.928,51.732 55.928,48.268 54.19,47.06 A 6.2858,6.2858 0 0 0 54.286,46 6.2858,6.2858 0 0 0 54.194,44.935 L 55.929,43.732 53.929,40.268 52.018,41.167 A 6.2858,6.2858 0 0 0 50.176,40.111 L 50,37.999 H 46 Z M 48,43.714 A 2.2858,2.2858 0 0 1 50.286,46 2.2858,2.2858 0 0 1 48,48.286 2.2858,2.2858 0 0 1 45.714,46 2.2858,2.2858 0 0 1 48,43.714 Z"/>
</svg>
